src/icons/Chevron_top.svg

<svg width="32" height="32" viewBox="0 0 32 32" fill="none" xmlns="http://www.w3.org/2000/svg">
<path fill-rule="evenodd" clip-rule="evenodd" d="M15.2929 9.29289C15.6834 8.90237 16.3166 8.90237 16.7071 9.29289L26.7071 19.2929C27.0976 19.6834 27.0976 20.3166 26.7071 20.7071C26.3166 21.0976 25.6834 21.0976 25.2929 20.7071L16 11.4142L6.70711 20.7071C6.31658 21.0976 5.68342 21.0976 5.29289 20.7071C4.90237 20.3166 4.90237 19.6834 5.29289 19.2929L15.2929 9.29289Z" fill="white"/>
<path fill-rule="evenodd" clip-rule="evenodd" d="M14.9393 8.93934C15.5251 8.35355 16.4749 8.35355 17.0607 8.93934L27.0607 18.9393C27.6464 19.5251 27.6464 20.4749 27.0607 21.0607C26.4749 21.6464 25.5251 21.6464 24.9393 21.0607L16 12.1213L7.06066 21.0607C6.47487 21.6464 5.52513 21.6464 4.93934 21.0607C4.35355 20.4749 4.35355 19.5251 4.93934 18.9393L14.9393 8.93934ZM16.3536 9.64645C16.1583 9.45118 15.8417 9.45118 15.6464 9.64645L5.64645 19.6464C5.45118 19.8417 5.45118 20.1583 5.64645 20.3536C5.84171 20.5488 6.15829 20.5488 6.35355 20.3536L15.6464 11.0607C15.7402 10.9669 15.8674 10.9142 16 10.9142C16.1326 10.9142 16.2598 10.9669 16.3536 11.0607L25.6464 20.3536C25.8417 20.5488 26.1583 20.5488 26.3536 20.3536C26.5488 20.1583 26.5488 19.8417 26.3536 19.6464L16.3536 9.64645Z" fill="white"/>
</svg>

<svg xmlns="http://www.w3.org/2000/svg" width="32" height="32" fill="none"><path fill="#fff" fill-rule="evenodd" d="M15.293 9.293a1 1 0 0 1 1.414 0l10 10a1 1 0 0 1-1.414 1.414L16 11.414l-9.293 9.293a1 1 0 0 1-1.414-1.414z" clip-rule="evenodd"/><path fill="#fff" fill-rule="evenodd" d="M14.94 8.94a1.5 1.5 0 0 1 2.12 0l10 10a1.5 1.5 0 0 1-2.12 2.12L16 12.122l-8.94 8.94a1.5 1.5 0 0 1-2.12-2.122zm1.414.706a.5.5 0 0 0-.708 0l-10 10a.5.5 0 0 0 .708.708l9.292-9.293a.5.5 0 0 1 .708 0l9.292 9.293a.5.5 0 0 0 .708-.708z" clip-rule="evenodd"/></svg>
